X:172
T:Tune for Emily Ball
S:LAU - Lightweights and Gentlemen
C:Aidan O'Rourke
Z:robin.beech@mcgill.ca
R:reel
M:4/4
L:1/8
K:A
|: A2BA GAEA | cA (3AAA agec | dedB- B2de | dB -B2 BAGA |
A2BA GAEA | cA (3AAA agec | dedB- BADE | GA (3Bcd cAAA ::
A2GE AGED- | DECE DECE | B,3D CA,B,B, | CDCA, B,D (3EFG |
A2GE AGEE | FEFA GEDc | d2Ac BAFG | AGA2 FDE2 :|
